svg/fluentui-system-icons/ic_fluent_document_ribbon_32_filled.svg

<svg width="32" height="32" viewBox="0 0 32 32" fill="none" xmlns="http://www.w3.org/2000/svg">
<path d="M17 2V9C17 10.6569 18.3431 12 20 12H27V27C27 28.6569 25.6569 30 24 30H13.5V24.1076C14.1348 23.054 14.5 21.8197 14.5 20.5C14.5 16.634 11.366 13.5 7.5 13.5C6.6192 13.5 5.7764 13.6627 5 13.9596V5C5 3.34315 6.34315 2 8 2H17ZM10.5 26.5486C11.0461 26.2772 11.5502 25.9341 12 25.5315V30.0497C12 30.791 11.1889 31.2466 10.5558 30.861L7.5 28.9997L4.44419 30.861C3.81112 31.2466 3 30.791 3 30.0497V25.5315C3.5841 26.0543 4.25978 26.4768 5 26.7722C5.76988 27.0793 6.60959 27.2488 7.48872 27.2502L7.49067 27.2502C7.49378 27.2503 7.49689 27.2503 7.5 27.2503C7.50311 27.2503 7.50622 27.2503 7.50933 27.2502L7.51128 27.2502C8.58474 27.2485 9.59944 26.9962 10.5 26.5486ZM7.5 26C6.59978 26 5.75007 25.7837 5 25.4003C3.21916 24.4899 2 22.6373 2 20.5C2 18.3627 3.21916 16.5101 5 15.5997C5.75007 15.2163 6.59978 15 7.5 15C10.5376 15 13 17.4624 13 20.5C13 21.5298 12.717 22.4935 12.2245 23.3175C11.9379 23.7971 11.5803 24.2294 11.1662 24.5999C10.1932 25.4706 8.90844 26 7.5 26ZM19 2.11664V9C19 9.55229 19.4477 10 20 10H26.8834C26.7442 9.51572 26.484 9.06977 26.1213 8.70711L20.2929 2.87868C19.9302 2.51602 19.4843 2.2558 19 2.11664Z" fill="#212121"/>
</svg>

<svg xmlns="http://www.w3.org/2000/svg" width="32" height="32"><path d="M17 2v7a3 3 0 0 0 3 3h7v15a3 3 0 0 1-3 3H13.5v-5.892A7 7 0 0 0 5 13.96V5a3 3 0 0 1 3-3h9Zm-6.5 24.549a6.762 6.762 0 0 0 1.5-1.017v4.518a.95.95 0 0 1-1.444.811L7.5 29l-3.056 1.86A.95.95 0 0 1 3 30.05v-4.518a6.731 6.731 0 0 0 4.489 1.719h.002a.29.29 0 0 0 .009 0h.011a6.72 6.72 0 0 0 2.989-.702ZM7.5 26A5.5 5.5 0 0 1 2 20.5a5.5 5.5 0 1 1 9.166 4.1A5.48 5.48 0 0 1 7.5 26ZM19 2.117V9a1 1 0 0 0 1 1h6.883a3 3 0 0 0-.762-1.293L20.293 2.88A3 3 0 0 0 19 2.117Z"/></svg>
